X:1
T:[ID 1-77a]
T:[ID 1-77a]
T:Bezeichnung standardisiert: Menuet Hasse; Menuet 7.
T:Urheber unbekannt Datum in der hier transkribierten schriftlichen Quelle: vermutlich vor 1767
C:Urheber unbekannt
C:Datum in der hier transkribierten schriftlichen Quelle: vermutlich vor 1767
L:1/8
M:3/4
K:D
V:1 treble 
V:1
 a2 fdec | d3 efg | afbgec | d4 F2 | GBdg b2 | FAdf a2 | E2 g2 f2 |{f} e6 :: e2 cAB^G | A2 ce a2 | %10
 e2 cAB^G | A4 a2 | bagf e2 | agfe d2 | egfgac | d6 :| %16

